X:87
T:Biddy Oats 
C:By J.L. Blatchley, Co.E.2nd N.Y.H.A.
B:Bruce & Emmett
B:American Veteran Fifer #87
M:2/4
L:1/8
Q:1/8=200
K:D
|: (3A/B/c/|df/d/ Ad/A/|FA/F/ DA|d/c/B/A/ g/f/e/d/|d/f/c/e/ d/c/B/A/|df/d/ Ad/A/|FA/F/ De/f/|g/e/f/d/ e/c/d/B/|A/d/A/F/ D :|
|: f/e/|dF/G/ Ag/f/|eE/F/ Gf/e/|d/A/F/A/ g/f/e/d/|c/e/d/B/ Af/e/|d/A/B/c/ d/A/g/f/|e/d/c/d/ e/A/a/g/|f/e/d/c/ B/g/e/c/|dfd :|
